X:122
T:Mooncoin
R:jig
M:6/8
L:1/8
K:Amix
| cBA AEA | AEA Bcd | cBA Ace | dBG Bcd |
| cBA AEA | AEA Bcd | Ace g3 | dBG Bcd :|
|: cde efg | f/g/af ged | cde efg | f/g/aA Bcd |
| cde efg | afd bge | afd gec | dBG Bcd :|
|: cBA Aaf | ecA Bcd | cBA g3 | dBG Bcd |
| cBA Aaa | Agg Aff | Aee efg | dBG Bcd :|

%%newpage
%%scale .65
%%staffsep 35

